X:1
T: Burnfoot House
C: Muriel A Johnstone
R:Strathspey
%Q: 128
K:A
M:4/4
L:1/16
|:C2D2|E3F E2C2 c2B2 A2E2|F3E FA3 B4 C2D2|E3F E2C2 c2B2 A2E2|F3A BG3 A4 C2D2|
E3F E2C2 c2B2 A2E2|F3E FA3 B4 C2D2|E3F E2C2 c2B2 A2E2|F3A BG3 A4 c2d2|
e3f e2c2 d2c2 B2c2|d3e d2c2 B2A2 G2cd|e3f e2c2 a2g2 f2e2|d3c BA3 B4 c2d2|
e3f e2c2 d2c2 B2c2|d3e d2c2 B2A2 G2CD|E3F E2C2 c2B2 A2E2|FA3 BG3 A4:|
